app/dist/common/images/dar-alarkan-real-estate-development-co.svg

<svg height="18" viewBox="0 0 18 18" width="18" xmlns="http://www.w3.org/2000/svg"><path d="m0 0h18v18h-18z" fill="#542983"/><path d="m3 11v-4h1.92c1.1-.02 2.11.88 2.08 2 .03 1.12-.98 2.02-2.08 2zm1.7-1c.69.02 1.27-.31 1.24-1 .03-.7-.55-1.02-1.24-1h-.7v2zm5.3 1-1.01-2.85-.99 2.85h-1l1.54-4h.92l1.54 4zm4 0-1.01-2.85-.99 2.85h-1l1.54-4h.92l1.54 4z" fill="#fff"/></svg>

<!-- by TradingView --><svg width="18" height="18" viewBox="0 0 18 18" xmlns="http://www.w3.org/2000/svg"><path fill="#542983" d="M0 0h18v18H0z"/><path d="M3 11V7h1.92c1.1-.02 2.11.88 2.08 2 .03 1.12-.98 2.02-2.08 2H3Zm1.7-1c.69.02 1.27-.31 1.24-1 .03-.7-.55-1.02-1.24-1H4v2h.7ZM10 11 8.99 8.15 8 11H7l1.54-4h.92L11 11h-1ZM14 11l-1.01-2.85L12 11h-1l1.54-4h.92L15 11h-1Z" fill="#fff"/></svg>
